Youtube.Add.svg

<svg width="100%" height="100%" viewBox="0 0 100 100" stroke-miterlimit="10" version="1.1" xml:space="preserve" xmlns="http://www.w3.org/2000/svg" xmlns:xlink="http://www.w3.org/1999/xlink"><defs><linearGradient gradientTransform="matrix(0.718328 52.578 -47.6279 0.718328 50.546 5.53721)" gradientUnits="userSpaceOnUse" id="LinearGradient_YoutubeAdd" x1="0" x2="1" y1="0" y2="0"><stop offset="0" stop-color="#db6569"/><stop offset="1" stop-color="#db6569" stop-opacity="0"/></linearGradient><linearGradient gradientTransform="matrix(18.7387 -28.6379 37.7764 24.9704 13.0238 101.841)" gradientUnits="userSpaceOnUse" id="LinearGradient_YoutubeAdd_2" x1="0" x2="1" y1="0" y2="0"><stop offset="0" stop-color="#d82428"/><stop offset="1" stop-color="#d82428" stop-opacity="0"/></linearGradient><linearGradient gradientTransform="matrix(-0.473801 -67.8481 67.8481 -0.473801 79.8178 114.048)" gradientUnits="userSpaceOnUse" id="LinearGradient_YoutubeAdd_5" x1="0" x2="1" y1="0" y2="0"><stop offset="0" stop-color="#31995f"/><stop offset="0.093" stop-color="#329e62"/><stop offset="0.665789" stop-color="#22ec79"/><stop offset="1" stop-color="#00ff70"/></linearGradient><filter color-interpolation-filters="sRGB" filterUnits="userSpaceOnUse" height="50.1778" id="Filter_YoutubeAdd" width="50.1778" x="54.0109" y="55.0394"><feDropShadow dx="-4.24768e-06" dy="1.1564" flood-color="#000000" flood-opacity="0.55" in="SourceGraphic" result="Shadow" stdDeviation="1.82432"/></filter><linearGradient gradientTransform="matrix(0.101193 22.246 -20.7237 -0.0316017 78.9114 60.2142)" gradientUnits="userSpaceOnUse" id="LinearGradient_YoutubeAdd_6" x1="0" x2="1" y1="0" y2="0"><stop offset="0.0201754" stop-color="#c7ffe0"/><stop offset="1" stop-color="#65db9a" stop-opacity="0"/></linearGradient><linearGradient gradientTransform="matrix(21.1508 -25.9834 18.3668 16.8748 53.314 112.41)" gradientUnits="userSpaceOnUse" id="LinearGradient_YoutubeAdd_7" x1="0" x2="1" y1="0" y2="0"><stop offset="0.0201754" stop-color="#c7ffe0"/><stop offset="1" stop-color="#65db9a" stop-opacity="0"/></linearGradient><filter color-interpolation-filters="sRGB" filterUnits="userSpaceOnUse" height="33.071" id="Filter_YoutubeAdd_2" width="33.071" x="62.5642" y="63.5928"><feDropShadow dx="-4.24768e-06" dy="1.1564" flood-color="#000000" flood-opacity="0.55" in="SourceGraphic" result="Shadow" stdDeviation="1.82432"/></filter></defs><g opacity="1" id="Youtube-Playlist"><path id="RedCircle" d="M50 99.5C22.775 99.5 0.5 77.225 0.5 50C0.5 22.775 22.775 0.5 50 0.5C77.225 0.5 99.5 22.775 99.5 50C99.5 77.225 77.225 99.5 50 99.5Z" fill="#911618" opacity="1" stroke="none"/><path id="gradientTop" d="M17.256 30.5901C17.256 16.9709 31.9495 5.93028 50.0747 5.93028C68.2 5.93028 82.8934 16.9709 82.8934 30.5901C82.8934 44.2094 68.2 55.25 50.0747 55.25C31.9495 55.25 17.256 44.2094 17.256 30.5901Z" fill="url(#LinearGradient_YoutubeAdd)" opacity="1" stroke="none"/><path id="gradientLeft" d="M25.9532 86.2282C16.1453 79.6573 3.67245 65.6192 8.74096 60.4004C14.1409 54.8403 21.4754 67.7001 33.0455 75.2582C44.6157 82.8164 58.4441 84.9015 55.0215 90.6331C52.358 95.0933 35.761 92.7991 25.9532 86.2282Z" fill="url(#LinearGradient_YoutubeAdd_2)" opacity="1" stroke="none"/><g opacity="1" id="Player"><path id="YoutubeAdd-3" d="M35.2994 38.8179C31.3011 38.8179 28.0602 41.7859 28.0602 45.4474L28.0602 60.6131C28.0602 64.2746 31.3011 67.2425 35.2994 67.2425L66.8869 67.2425C70.8852 67.2425 74.1261 64.2746 74.1261 60.6131L74.1261 45.4474C74.1261 41.7859 70.8852 38.8179 66.8869 38.8179L35.2994 38.8179ZM53.7947 50.3673C54.3797 50.6905 54.3679 51.5355 53.774 51.8421L45.3312 56.2022C44.7745 56.4897 44.1112 56.0855 44.1113 55.459L44.1139 46.4357C44.1141 45.7991 44.7972 45.3962 45.3544 45.7041L53.7947 50.3673Z" fill="#741315" opacity="0.869347" stroke="none"/><path id="YoutubeAdd-2" d="M35.817 35.432C32.0572 35.432 29.0095 38.4796 29.0095 42.2395L29.0095 57.8127C29.0095 61.5726 32.0572 64.6203 35.817 64.6203L65.521 64.6203C69.2808 64.6203 72.3285 61.5726 72.3285 57.8127L72.3285 42.2395C72.3285 38.4796 69.2808 35.432 65.521 35.432L35.817 35.432ZM45.268 41.3649C45.483 41.3614 45.7059 41.414 45.9142 41.5346L52.304 45.2354L58.6938 48.9361C59.5271 49.4185 59.5282 50.6226 58.6938 51.103L52.2909 54.7842L45.8946 58.4719C45.0602 58.9523 44.0202 58.3447 44.0214 57.3819L44.0279 50L44.0344 42.6181C44.0353 41.896 44.6231 41.3754 45.268 41.3649Z" fill="#e7e6e8" opacity="1" stroke="#e8e6e6" stroke-linecap="round" stroke-linejoin="round" stroke-width="1"/></g></g><g opacity="1" id="YoutubeAddGroup-1"><path id="YoutubeAdd" shadowAngle="1.5708" shadowColor="#000000" shadowOffset="1.1564" shadowOpacity="0.55" shadowRadius="3.64864" d="M79.0997 58.4439C67.7624 58.4439 58.5717 67.6346 58.5717 78.9719C58.5717 90.3093 67.7624 99.5 79.0997 99.5C90.4371 99.5 99.6278 90.3093 99.6278 78.9719C99.6278 67.6346 90.4371 58.4439 79.0997 58.4439Z" fill="url(#LinearGradient_YoutubeAdd_5)" filter="url(#Filter_YoutubeAdd)" stroke="none"/><path id="Oval-1" d="M63.3366 71.3084C63.3366 65.1089 70.394 60.0832 79.0997 60.0832C87.8055 60.0832 94.8629 65.1089 94.8629 71.3084C94.8629 77.5079 87.8055 82.5336 79.0997 82.5336C70.394 82.5336 63.3366 77.5079 63.3366 71.3084Z" fill="url(#LinearGradient_YoutubeAdd_6)" opacity="1" stroke="none"/><path id="Oval-2" d="M91.4152 93.237C85.8347 100.509 74.7156 101.344 66.58 95.1016C58.4444 88.8588 56.373 77.9026 61.9534 70.63C67.5339 63.3575 78.6529 62.5227 86.7886 68.7654C94.9242 75.0082 96.9956 85.9644 91.4152 93.237Z" fill="url(#LinearGradient_YoutubeAdd_7)" opacity="1" stroke="none"/><path id="YoutubeAdd-1" shadowAngle="1.5708" shadowColor="#000000" shadowOffset="1.1564" shadowOpacity="0.55" shadowRadius="3.64864" fill="#ffffff" filter="url(#Filter_YoutubeAdd_2)" stroke="none" d="M87.6531 82.3933L70.5464 82.3933C68.6646 82.3933 67.125 80.8537 67.125 78.9719L67.125 78.9719C67.125 77.0902 68.6646 75.5506 70.5464 75.5506L87.6531 75.5506C89.5348 75.5506 91.0744 77.0902 91.0744 78.9719L91.0744 78.9719C91.0744 80.8537 89.5348 82.3933 87.6531 82.3933ZM82.5211 70.4186L82.5211 87.5253C82.5211 89.407 80.9815 90.9466 79.0997 90.9466L79.0997 90.9466C77.218 90.9466 75.6784 89.407 75.6784 87.5253L75.6784 70.4186C75.6784 68.5368 77.218 66.9972 79.0997 66.9972L79.0997 66.9972C80.9815 66.9972 82.5211 68.5368 82.5211 70.4186Z"/></g></svg>

<svg width="100%" height="100%" xmlns="http://www.w3.org/2000/svg" xml:space="preserve" stroke-miterlimit="10" viewBox="0 0 100 100">
   <defs>
      <linearGradient id="a" x1="0" x2="1" y1="0" y2="0" gradientTransform="matrix(.71833 52.578 -47.6279 .71833 50.546 5.537)" gradientUnits="userSpaceOnUse"><stop offset="0" stop-color="#db6569"/><stop offset="1" stop-color="#db6569" stop-opacity="0"/></linearGradient>
      <linearGradient id="b" x1="0" x2="1" y1="0" y2="0" gradientTransform="matrix(18.7387 -28.6379 37.7764 24.9704 13.024 101.841)" gradientUnits="userSpaceOnUse"><stop offset="0" stop-color="#d82428"/><stop offset="1" stop-color="#d82428" stop-opacity="0"/></linearGradient>
      <linearGradient id="c" x1="0" x2="1" y1="0" y2="0" gradientTransform="scale(-67.84975)rotate(89.6 .258 -1.433)" gradientUnits="userSpaceOnUse"><stop offset="0" stop-color="#31995f"/><stop offset=".093" stop-color="#329e62"/><stop offset=".666" stop-color="#22ec79"/><stop offset="1" stop-color="#00ff70"/></linearGradient>
      <linearGradient id="e" x1="0" x2="1" y1="0" y2="0" gradientTransform="matrix(.1012 22.246 -20.7237 -.0316 78.911 60.214)" gradientUnits="userSpaceOnUse"><stop offset=".02" stop-color="#c7ffe0"/><stop offset="1" stop-color="#65db9a" stop-opacity="0"/></linearGradient>
      <linearGradient id="f" x1="0" x2="1" y1="0" y2="0" gradientTransform="matrix(21.1508 -25.9834 18.3668 16.8748 53.314 112.41)" gradientUnits="userSpaceOnUse"><stop offset=".02" stop-color="#c7ffe0"/><stop offset="1" stop-color="#65db9a" stop-opacity="0"/></linearGradient>
      <filter id="d" width="50.178" height="50.178" x="54.011" y="55.039" color-interpolation-filters="sRGB" filterUnits="userSpaceOnUse"><feDropShadow dx="0" dy="1.156" flood-color="#000" flood-opacity=".55" in="SourceGraphic" result="Shadow" stdDeviation="1.824"/></filter>
      <filter id="g" height="33.071" x="62.564" y="63.593" color-interpolation-filters="sRGB" filterUnits="userSpaceOnUse"><feDropShadow dx="0" dy="1.156" flood-color="#000" flood-opacity=".55" in="SourceGraphic" result="Shadow" stdDeviation="1.824"/></filter>
   </defs>
      <path fill="#911618" d="M50 99.5C22.775 99.5.5 77.225.5 50S22.775.5 50 .5 99.5 22.775 99.5 50 77.225 99.5 50 99.5"/>
      <path fill="url(#a)" d="M17.256 30.59c0-13.62 14.694-24.66 32.819-24.66s32.818 11.04 32.818 24.66S68.2 55.25 50.075 55.25c-18.126 0-32.819-11.04-32.819-24.66"/>
      <path fill="url(#b)" d="M25.953 86.228C16.145 79.658 3.673 65.62 8.741 60.4c5.4-5.56 12.734 7.3 24.304 14.858s25.4 9.644 21.977 15.375c-2.664 4.46-19.261 2.166-29.069-4.405"/>
      <path fill="#741315" d="M35.3 38.818c-3.999 0-7.24 2.968-7.24 6.63v15.165c0 3.662 3.241 6.63 7.24 6.63h31.587c3.998 0 7.24-2.968 7.24-6.63V45.447c0-3.661-3.242-6.63-7.24-6.63zm18.495 11.55a.836.836 0 0 1-.021 1.474l-8.443 4.36a.836.836 0 0 1-1.22-.743l.003-9.023a.836.836 0 0 1 1.24-.732z" opacity=".869"/>
      <path fill="#e7e6e8" stroke="#e8e6e6" stroke-linecap="round" stroke-linejoin="round" d="M35.817 35.432a6.807 6.807 0 0 0-6.808 6.807v15.574a6.807 6.807 0 0 0 6.808 6.807h29.704a6.807 6.807 0 0 0 6.808-6.807V42.239a6.807 6.807 0 0 0-6.808-6.807zm9.451 5.933c.215-.004.438.049.646.17l6.39 3.7 6.39 3.701a1.251 1.251 0 0 1 0 2.167l-6.403 3.681-6.396 3.688c-.835.48-1.875-.127-1.874-1.09L44.028 50l.006-7.382c.001-.722.59-1.243 1.234-1.253"/>
      <path fill="url(#c)" d="M79.1 58.444c-11.338 0-20.528 9.19-20.528 20.528S67.762 99.5 79.1 99.5s20.528-9.19 20.528-20.528-9.19-20.528-20.528-20.528" filter="url(#d)"/>
      <path fill="url(#e)" d="M63.337 71.308c0-6.2 7.057-11.225 15.763-11.225s15.763 5.026 15.763 11.225c0 6.2-7.058 11.226-15.763 11.226s-15.763-5.026-15.763-11.226"/>
      <path fill="url(#f)" d="M91.415 93.237c-5.58 7.272-16.7 8.107-24.835 1.865-8.136-6.243-10.207-17.2-4.627-24.472s16.7-8.107 24.836-1.865c8.135 6.243 10.207 17.2 4.626 24.472"/>
      <path fill="#FFF" filter="url(#g)" d="M87.653 82.393H70.546a3.43 3.43 0 0 1-3.421-3.421 3.43 3.43 0 0 1 3.421-3.421h17.107a3.43 3.43 0 0 1 3.421 3.42 3.43 3.43 0 0 1-3.42 3.422M82.521 70.42v17.106a3.43 3.43 0 0 1-3.421 3.422 3.43 3.43 0 0 1-3.422-3.422V70.42a3.43 3.43 0 0 1 3.422-3.422 3.43 3.43 0 0 1 3.421 3.422"/></svg>
